X: 20337
T: John Brosnan's
R: polka
M: 2/4
K: Dmajor
D>D DB|AF FB|AF DE|FE EF/E/|
D>D DB|AF FB|AF EF/E/|1 DA, B,C:|2 D2D2||
|:d2 cd|BA FA|d2 cd|B3c|d2 cd|
BA FB|1 AF EF|DE FA:|2 AF EF/E/|D2FA||
|:d2 e2|f3e|dc/d/ ed/e/|f3e|dB B/c/d/c/|
AF d>B|AF EF/E/|1 D2 FA:|2 DA, B,C||

